icons/svg/craft/gardener.svg

<?xml version="1.0" encoding="UTF-8" standalone="no"?>
<!-- Created with Inkscape (http://www.inkscape.org/) -->

<svg
   xmlns:dc="http://purl.org/dc/elements/1.1/"
   xmlns:cc="http://creativecommons.org/ns#"
   xmlns:rdf="http://www.w3.org/1999/02/22-rdf-syntax-ns#"
   xmlns:svg="http://www.w3.org/2000/svg"
   xmlns="http://www.w3.org/2000/svg"
   xmlns:sodipodi="http://sodipodi.sourceforge.net/DTD/sodipodi-0.dtd"
   xmlns:inkscape="http://www.inkscape.org/namespaces/inkscape"
   version="1.0"
   width="580"
   height="580"
   id="svg2"
   sodipodi:version="0.32"
   inkscape:version="0.92.3 (2405546, 2018-03-11)"
   sodipodi:docname="gardener.svg"
   inkscape:output_extension="org.inkscape.output.svg.inkscape">
  <metadata
     id="metadata2975">
    <rdf:RDF>
      <cc:Work
         rdf:about="">
        <dc:format>image/svg+xml</dc:format>
        <dc:type
           rdf:resource="http://purl.org/dc/dcmitype/StillImage" />
        <cc:license
           rdf:resource="http://web.resource.org/cc/PublicDomain" />
        <dc:language>en</dc:language>
        <dc:title />
      </cc:Work>
    </rdf:RDF>
  </metadata>
  <sodipodi:namedview
     inkscape:window-height="1006"
     inkscape:window-width="1920"
     inkscape:pageshadow="2"
     inkscape:pageopacity="0.0"
     guidetolerance="10.0"
     gridtolerance="10.0"
     objecttolerance="10.0"
     borderopacity="1.0"
     bordercolor="#666666"
     pagecolor="#ffffff"
     id="base"
     inkscape:zoom="0.65172414"
     inkscape:cx="212.43134"
     inkscape:cy="208.52786"
     inkscape:window-x="1920"
     inkscape:window-y="0"
     inkscape:current-layer="svg2"
     showgrid="false"
     inkscape:window-maximized="1" />
  <defs
     id="defs4">
    <inkscape:perspective
       sodipodi:type="inkscape:persp3d"
       inkscape:vp_x="0 : 290 : 1"
       inkscape:vp_y="6.1230318e-14 : 1000 : 0"
       inkscape:vp_z="580 : 290 : 1"
       inkscape:persp3d-origin="290 : 193.33333 : 1"
       id="perspective2441" />
    <inkscape:perspective
       id="perspective3452"
       inkscape:persp3d-origin="30 : 20 : 1"
       inkscape:vp_z="60 : 30 : 1"
       inkscape:vp_y="0 : 1000 : 0"
       inkscape:vp_x="0 : 30 : 1"
       sodipodi:type="inkscape:persp3d" />
    <symbol
       viewBox="244.5 110 489 219.9"
       id="symbol-university">
      <path
         id="path4460"
         d="M79,43l57,119c0,0,21-96,104-96s124,106,124,106l43-133l82-17L0,17L79,43z" />
      <path
         id="path4462"
         d="M94,176l-21,39"
         stroke-width="20"
         stroke="#000000"
         fill="none" />
      <path
         id="path4464"
         d="M300,19c0,10.5-22.6,19-50.5,19S199,29.5,199,19s22.6-19,50.5-19S300,8.5,300,19z" />
      <path
         id="path4466"
         d="M112,216l-16-38L64,88c0,0-9-8-4-35s16-24,16-24"
         stroke-width="20"
         stroke="#000000"
         ill="none" />
    </symbol>
    <inkscape:perspective
       id="perspective4471"
       inkscape:persp3d-origin="372.04724 : 350.78739 : 1"
       inkscape:vp_z="744.09448 : 526.18109 : 1"
       inkscape:vp_y="0 : 1000 : 0"
       inkscape:vp_x="0 : 526.18109 : 1"
       sodipodi:type="inkscape:persp3d" />
    <inkscape:perspective
       id="perspective4668"
       inkscape:persp3d-origin="6 : 4 : 1"
       inkscape:vp_z="12 : 6 : 1"
       inkscape:vp_y="0 : 1000 : 0"
       inkscape:vp_x="0 : 6 : 1"
       sodipodi:type="inkscape:persp3d" />
    <inkscape:perspective
       id="perspective3826"
       inkscape:persp3d-origin="0.5 : 0.33333333 : 1"
       inkscape:vp_z="1 : 0.5 : 1"
       inkscape:vp_y="0 : 1000 : 0"
       inkscape:vp_x="0 : 0.5 : 1"
       sodipodi:type="inkscape:persp3d" />
    <inkscape:perspective
       id="perspective3855"
       inkscape:persp3d-origin="0.5 : 0.33333333 : 1"
       inkscape:vp_z="1 : 0.5 : 1"
       inkscape:vp_y="0 : 1000 : 0"
       inkscape:vp_x="0 : 0.5 : 1"
       sodipodi:type="inkscape:persp3d" />
    <inkscape:perspective
       id="perspective3909"
       inkscape:persp3d-origin="0.5 : 0.33333333 : 1"
       inkscape:vp_z="1 : 0.5 : 1"
       inkscape:vp_y="0 : 1000 : 0"
       inkscape:vp_x="0 : 0.5 : 1"
       sodipodi:type="inkscape:persp3d" />
    <inkscape:perspective
       id="perspective11014"
       inkscape:persp3d-origin="0.5 : 0.33333333 : 1"
       inkscape:vp_z="1 : 0.5 : 1"
       inkscape:vp_y="0 : 1000 : 0"
       inkscape:vp_x="0 : 0.5 : 1"
       sodipodi:type="inkscape:persp3d" />
    <inkscape:perspective
       id="perspective11066"
       inkscape:persp3d-origin="0.5 : 0.33333333 : 1"
       inkscape:vp_z="1 : 0.5 : 1"
       inkscape:vp_y="0 : 1000 : 0"
       inkscape:vp_x="0 : 0.5 : 1"
       sodipodi:type="inkscape:persp3d" />
    <inkscape:perspective
       id="perspective15015"
       inkscape:persp3d-origin="0.5 : 0.33333333 : 1"
       inkscape:vp_z="1 : 0.5 : 1"
       inkscape:vp_y="0 : 1000 : 0"
       inkscape:vp_x="0 : 0.5 : 1"
       sodipodi:type="inkscape:persp3d" />
    <inkscape:perspective
       id="perspective15058"
       inkscape:persp3d-origin="0.5 : 0.33333333 : 1"
       inkscape:vp_z="1 : 0.5 : 1"
       inkscape:vp_y="0 : 1000 : 0"
       inkscape:vp_x="0 : 0.5 : 1"
       sodipodi:type="inkscape:persp3d" />
  </defs>
  <g
     id="g1327">
    <path
       d="M 66.275,1.768 C 24.94,1.768 1.704,23.139 1.704,66.804 L 1.704,516.927 C 1.704,557.771 22.599,579.156 63.896,579.156 L 515.92,579.156 C 557.227,579.156 578.149,558.841 578.149,516.927 L 578.149,66.804 C 578.149,24.203 557.227,1.768 514.628,1.768 C 514.624,1.768 66.133,1.625 66.275,1.768 z "
       style="fill:#111;stroke:#eee;stroke-width:3.40799999"
       id="path1329" />
  </g>
  <g
     id="g3338"
     transform="matrix(1.3973279,-0.2437849,0.2437849,1.3973279,-185.07402,-56.183307)" />
  <path
     inkscape:connector-curvature="0"
     style="fill:#ffffff;fill-opacity:1"
     d="m 388.38846,84.81661 c -9.19667,15.71376 -35.30217,39.62475 -34.81446,110.25 -4.459,-16.15506 -9.77489,-51.82351 -8.14257,-79.0586 0,0 -41.64454,27.88121 -41.64454,101.1543 0,53.23248 28.29776,92.17844 66.13868,101.77344 V 440.42012 C 334.50282,372.48435 265.54861,337.71504 265.54861,337.71504 c 0,0 17.0856,37.78557 27.94922,82.48438 12.37639,50.85599 33.18118,72.96323 76.42774,74.05273 v 0.35157 h 36.96679 c 54.12054,-1.73371 68.94705,-52.16458 116.83399,-137.54102 -56.62139,17.22839 -65.03815,30.23138 -116.83399,74.58203 V 318.9377 c 37.84099,-9.59199 66.13867,-48.52923 66.13867,-101.77539 0,-73.27309 -41.64453,-101.1543 -41.64453,-101.1543 1.63229,27.23509 -3.68358,62.90354 -8.14257,79.0586 0.4877,-70.62525 -25.61779,-94.53624 -34.81446,-110.25 0,0.063 -0.01,0.126404 -0.0195,0.189453 0,-0.06301 -0.0116,-0.126405 -0.0215,-0.189453 z"
     id="path3-7" />
  <path
     inkscape:connector-curvature="0"
     d="M 214.77337,169.53957 146.14392,55.157147 c -4.1292,-6.897262 -15.48738,-6.897262 -19.61658,0 L 57.897884,169.53957 c -1.06376,1.78436 -1.62423,3.82037 -1.62423,5.8907 v 11.43824 263.07959 22.87648 c 0,31.53524 25.655982,57.19122 57.191216,57.19122 h 45.75297 c 31.53523,0 57.19121,-25.65598 57.19121,-57.19122 V 449.9481 186.86851 175.43027 c 0,-2.07033 -0.56048,-4.10634 -1.63568,-5.8907 z M 136.34135,83.283784 184.77086,163.99203 H 87.911836 Z M 113.46487,461.38634 H 90.588386 V 186.86851 h 22.876484 z m 68.62945,0 H 159.21783 V 186.86851 h 22.87649 z"
     id="path7"
     style="fill:#ffffff;fill-opacity:1;stroke:none" />
</svg>

<svg width="580" height="580" viewBox="0 0 580 580" fill="none" xmlns="http://www.w3.org/2000/svg">
<g clip-path="url(#clip0)">
<path d="M66.275 1.76802C24.94 1.76802 1.70398 23.139 1.70398 66.804V516.927C1.70398 557.771 22.599 579.156 63.896 579.156H515.92C557.227 579.156 578.149 558.841 578.149 516.927V66.804C578.149 24.203 557.227 1.76802 514.628 1.76802C514.624 1.76802 66.133 1.62502 66.275 1.76802Z" fill="#111111" stroke="#EEEEEE" stroke-width="3.408"/>
<path d="M388.388 84.8167C379.192 100.53 353.086 124.441 353.574 195.067C349.115 178.912 343.799 143.243 345.431 116.008C345.431 116.008 303.787 143.889 303.787 217.162C303.787 270.395 332.085 309.341 369.926 318.936V440.42C334.503 372.484 265.549 337.715 265.549 337.715C265.549 337.715 282.634 375.501 293.498 420.199C305.874 471.055 326.679 493.163 369.926 494.252V494.604H406.892C461.013 492.87 475.839 442.439 523.726 357.063C467.105 374.291 458.688 387.294 406.892 431.645V318.938C444.733 309.346 473.031 270.409 473.031 217.162C473.031 143.889 431.386 116.008 431.386 116.008C433.019 143.243 427.703 178.912 423.244 195.067C423.732 124.441 397.626 100.53 388.429 84.8167C388.429 84.8797 388.419 84.9431 388.41 85.0061C388.41 84.9431 388.398 84.8797 388.388 84.8167V84.8167Z" fill="white"/>
<path d="M214.773 169.54L146.144 55.1571C142.015 48.2599 130.657 48.2599 126.527 55.1571L57.8979 169.54C56.8342 171.324 56.2737 173.36 56.2737 175.43V186.868V449.948V472.825C56.2737 504.36 81.9297 530.016 113.465 530.016H159.218C190.753 530.016 216.409 504.36 216.409 472.825V449.948V186.868V175.43C216.409 173.36 215.849 171.324 214.773 169.54V169.54ZM136.341 83.2838L184.771 163.992H87.9119L136.341 83.2838ZM113.465 461.386H90.5884V186.868H113.465V461.386ZM182.094 461.386H159.218V186.868H182.094V461.386Z" fill="white"/>
</g>
<defs>
<clipPath id="clip0">
<path d="M0 0H580V580H0V0Z" fill="white"/>
</clipPath>
</defs>
</svg>
